src/assets/svg/icons/fa/nuevos/classic/thin/piggy-bank classic thin.svg

<svg xmlns="http://www.w3.org/2000/svg" viewBox="0 0 576 512"><!--! Font Awesome Pro 6.4.0 by @fontawesome - https://fontawesome.com License - https://fontawesome.com/license (Commercial License) Copyright 2023 Fonticons, Inc. --><path d="M272 16c-53 0-96 43-96 96c0 4.4-3.6 8-8 8s-8-3.6-8-8C160 50.1 210.1 0 272 0c56 0 102.4 41.1 110.7 94.8c.7 4.4-2.3 8.5-6.7 9.1s-8.5-2.3-9.1-6.7C359.8 51.2 320 16 272 16zM52 200c-19.9 0-36 16.1-36 36s16.1 36 36 36H64.8c8-80.9 76.2-144 159.2-144H381c18.9-19.7 45.6-32 75-32h11.2c15.8 0 27.3 14.9 23.2 30.2l-9.2 34.7c21.4 16.4 38.6 38.1 49.6 63.2H544c17.7 0 32 14.3 32 32v96c0 17.7-14.3 32-32 32H512c-16.5 22-38.5 39.5-64 50.7V464c0 26.5-21.5 48-48 48H368c-26.5 0-48-21.5-48-48V448H256v16c0 26.5-21.5 48-48 48H176c-26.5 0-48-21.5-48-48V416c-38.8-29.2-64-75.7-64-128H52c-28.7 0-52-23.3-52-52s23.3-52 52-52h4c4.4 0 8 3.6 8 8s-3.6 8-8 8H52zM248 432h80 16c4.4 0 8 3.6 8 8s-3.6 8-8 8h-8v16c0 17.7 14.3 32 32 32h32c17.7 0 32-14.3 32-32V429.4c0-3.3 2-6.2 5.1-7.4c26-10.3 48.4-28 64.4-50.6c1.5-2.1 3.9-3.4 6.5-3.4H544c8.8 0 16-7.2 16-16V256c0-8.8-7.2-16-16-16H525.4c-3.3 0-6.2-2-7.4-5.1c-10.3-26-28-48.4-50.6-64.4c-2.7-1.9-4-5.4-3.1-8.6l10.6-39.9c1.4-5.1-2.5-10.1-7.7-10.1H456c-26.1 0-49.5 11.3-65.6 29.3c-1.5 1.7-3.7 2.7-6 2.7l-.4 0h0H224c-79.5 0-144 64.5-144 144c0 48.5 23.9 91.3 60.6 117.4c2.1 1.5 3.4 3.9 3.4 6.5V464c0 17.7 14.3 32 32 32h32c17.7 0 32-14.3 32-32V448h-8c-4.4 0-8-3.6-8-8s3.6-8 8-8h16zM416 272a16 16 0 1 0 0-32 16 16 0 1 0 0 32zm0-48a32 32 0 1 1 0 64 32 32 0 1 1 0-64z"/></svg>

<svg xmlns="http://www.w3.org/2000/svg" viewBox="0 0 576 512"><path d="M168 120C163.6 120 160 116.4 160 112C160 50.14 210.1 0 272 0C328 0 374.4 41.1 382.7 94.78C383.4 99.15 380.4 103.2 375.1 103.9C371.6 104.6 367.5 101.6 366.9 97.22C359.8 51.22 319.1 16 272 16C218.1 16 176 58.98 176 112C176 116.4 172.4 120 168 120H168zM384 256C384 238.3 398.3 224 416 224C433.7 224 448 238.3 448 256C448 273.7 433.7 288 416 288C398.3 288 384 273.7 384 256zM416 272C424.8 272 432 264.8 432 256C432 247.2 424.8 240 416 240C407.2 240 400 247.2 400 256C400 264.8 407.2 272 416 272zM208 512H176C149.5 512 128 490.5 128 464V416C89.14 386.8 64 340.3 64 288H52C23.28 288 0 264.7 0 236C0 207.3 23.28 184 52 184H56C60.42 184 64 187.6 64 192C64 196.4 60.42 200 56 200H52C32.12 200 16 216.1 16 236C16 255.9 32.12 272 52 272H64.79C72.82 191.1 141 128 224 128H376.4C394 108.4 419.6 96 448 96H465.3C480.9 96 492.3 110.7 488.5 125.8L480 159.1C501.1 176.5 519.6 198.5 530.7 224H544C561.7 224 576 238.3 576 256V352C576 369.7 561.7 384 544 384H512C495.5 405.1 473.5 423.6 448 434.7V464C448 490.5 426.5 512 400 512H368C341.5 512 320 490.5 320 464V448H256V464C256 490.5 234.5 512 208 512V512zM383.6 144H224C144.5 144 80 208.5 80 288C80 335.1 102.6 376.9 137.6 403.2L144 408V464C144 481.7 158.3 496 176 496H208C225.7 496 240 481.7 240 464V448H232C227.6 448 224 444.4 224 440C224 435.6 227.6 432 232 432H344C348.4 432 352 435.6 352 440C352 444.4 348.4 448 344 448H336V464C336 481.7 350.3 496 368 496H400C417.7 496 432 481.7 432 464V424.2L441.6 420C464.5 410 484.4 394.2 499.2 374.4L504 368H544C552.8 368 560 360.8 560 352V256C560 247.2 552.8 240 544 240H520.2L516 230.4C506 207.5 490.2 187.6 470.4 172.8L461.9 166.4L473 121.9C474.3 116.9 470.5 112 465.3 112H448C424.3 112 403 122.3 388.4 138.7L383.6 144z"/></svg>
